fa/svgs/regular/face-sad-cry.svg

<svg xmlns="http://www.w3.org/2000/svg" viewBox="0 0 512 512"><!--! Font Awesome Free 6.1.1 by @fontawesome - https://fontawesome.com License - https://fontawesome.com/license/free (Icons: CC BY 4.0, Fonts: SIL OFL 1.1, Code: MIT License) Copyright 2022 Fonticons, Inc.--><path d="M159.6 220c-11.5 0-19.9 3.8-25.4 9.7-7.5 8-20.2 8.4-29.1.9-7.21-7.6-7.62-20.2-.1-28.3 14.6-15.5 35.3-22.3 54.6-22.3 18.5 0 40.1 6.8 54.6 22.3 7.6 8.1 7.2 20.7-.9 28.3-8.1 7.5-20.7 7.1-28.3-.9-5.4-5.9-14.7-9.7-25.4-9.7zm138.3 10.6c-8-7.6-8.4-20.2-.9-28.3 14.6-15.5 35.3-22.3 54.6-22.3 18.5 0 40.1 6.8 54.6 22.3 7.6 8.1 7.2 20.7-.9 28.3-8.1 7.5-20.7 7.1-28.3-.9-5.4-5.9-14.7-9.7-25.4-9.7-11.5 0-19.9 3.8-25.4 9.7-7.5 8-20.2 8.4-28.3.9zM208 320c0-26.5 21.5-48 48-48s48 21.5 48 48v32c0 26.5-21.5 48-48 48s-48-21.5-48-48v-32zM0 256C0 114.6 114.6 0 256 0s256 114.6 256 256-114.6 256-256 256S0 397.4 0 256zm400 150.1c39.4-37.9 64-92 64-150.1 0-114.9-93.1-208-208-208S48 141.1 48 256c0 58.1 24.55 112.2 64 150.1V288c0-13.3 10.7-24 24-24s24 10.7 24 24v152.6c28.7 14.9 61.4 23.4 96 23.4s67.3-8.5 96-23.4V288c0-13.3 10.7-24 24-24s24 10.7 24 24v118.1z"/></svg>

<svg xmlns="http://www.w3.org/2000/svg" viewBox="0 0 512 512"><!--! Font Awesome Free 6.2.1 by @fontawesome - https://fontawesome.com License - https://fontawesome.com/license/free (Icons: CC BY 4.0, Fonts: SIL OFL 1.1, Code: MIT License) Copyright 2022 Fonticons, Inc. --><path d="M159.6 220C148.1 220 139.7 223.8 134.2 229.7C126.7 237.7 114 238.1 105.1 230.6C97.89 223 97.48 210.4 105 202.3C119.6 186.8 140.3 180 159.6 180C178.1 180 199.7 186.8 214.2 202.3C221.8 210.4 221.4 223 213.3 230.6C205.2 238.1 192.6 237.7 185 229.7C179.6 223.8 170.3 220 159.6 220zM297.9 230.6C289.9 223 289.5 210.4 297 202.3C311.6 186.8 332.3 180 351.6 180C370.1 180 391.7 186.8 406.2 202.3C413.8 210.4 413.4 223 405.3 230.6C397.2 238.1 384.6 237.7 377 229.7C371.6 223.8 362.3 220 351.6 220C340.1 220 331.7 223.8 326.2 229.7C318.7 237.7 306 238.1 297.9 230.6zM208 320C208 293.5 229.5 272 256 272C282.5 272 304 293.5 304 320V352C304 378.5 282.5 400 256 400C229.5 400 208 378.5 208 352V320zM0 256C0 114.6 114.6 0 256 0C397.4 0 512 114.6 512 256C512 397.4 397.4 512 256 512C114.6 512 0 397.4 0 256zM400 406.1C439.4 368.2 464 314.1 464 256C464 141.1 370.9 48 256 48C141.1 48 48 141.1 48 256C48 314.1 72.55 368.2 112 406.1V288C112 274.7 122.7 264 136 264C149.3 264 160 274.7 160 288V440.6C188.7 455.5 221.4 464 256 464C290.6 464 323.3 455.5 352 440.6V288C352 274.7 362.7 264 376 264C389.3 264 400 274.7 400 288V406.1z"/></svg>
